fixtures/media/authorized-real-v2/target-guided-grade-v1.cube
TITLE "NodeVideo authorized target-guided grade v1"
LUT_3D_SIZE 33
DOMAIN_MIN 0.0 0.0 0.0
DOMAIN_MAX 1.0 1.0 1.0
0.00986969 0.01085031 0.03273086
0.02008678 0.01085031 0.03273086
0.02989913 0.01085031 0.03273086
0.03946759 0.01085031 0.03273086
0.04895302 0.01085031 0.03273086
0.05851628 0.01085031 0.03273086
0.06831822 0.01085031 0.03273086
0.07851970 0.01085031 0.03273086
0.08928158 0.01085031 0.03273086
0.10076470 0.01085031 0.03273086
0.11312994 0.01085031 0.03273086
0.12653813 0.01085031 0.03273086
0.14115014 0.01085031 0.03273086
0.15712683 0.01085031 0.03273086
0.17462904 0.01085031 0.03273086
0.19381765 0.01085031 0.03273086
0.21485349 0.01085031 0.03273086
0.23789743 0.01085031 0.03273086
0.26311033 0.01085031 0.03273086
0.29065303 0.01085031 0.03273086
0.32068640 0.01085031 0.03273086
0.35337129 0.01085031 0.03273086
0.38886856 0.01085031 0.03273086
0.42733906 0.01085031 0.03273086
0.46894365 0.01085031 0.03273086
0.51384318 0.01085031 0.03273086
0.56219852 0.01085031 0.03273086
0.61417051 0.01085031 0.03273086
0.66992001 0.01085031 0.03273086
0.72960789 0.01085031 0.03273086
0.79339499 0.01085031 0.03273086
0.86144216 0.01085031 0.03273086
0.93391028 0.01085031 0.03273086
0.00986969 0.01669100 0.03273086
0.02008678 0.01669100 0.03273086
0.02989913 0.01669100 0.03273086
0.03946759 0.01669100 0.03273086
0.04895302 0.01669100 0.03273086
0.05851628 0.01669100 0.03273086
0.06831822 0.01669100 0.03273086
0.07851970 0.01669100 0.03273086
0.08928158 0.01669100 0.03273086
0.10076470 0.01669100 0.03273086
0.11312994 0.01669100 0.03273086
0.12653813 0.01669100 0.03273086
0.14115014 0.01669100 0.03273086
0.15712683 0.01669100 0.03273086
0.17462904 0.01669100 0.03273086
0.19381765 0.01669100 0.03273086
0.21485349 0.01669100 0.03273086
0.23789743 0.01669100 0.03273086
0.26311033 0.01669100 0.03273086
0.29065303 0.01669100 0.03273086
0.32068640 0.01669100 0.03273086
0.35337129 0.01669100 0.03273086
0.38886856 0.01669100 0.03273086
0.42733906 0.01669100 0.03273086
0.46894365 0.01669100 0.03273086
0.51384318 0.01669100 0.03273086
0.56219852 0.01669100 0.03273086
0.61417051 0.01669100 0.03273086
0.66992001 0.01669100 0.03273086
0.72960789 0.01669100 0.03273086
0.79339499 0.01669100 0.03273086
0.86144216 0.01669100 0.03273086
0.93391028 0.01669100 0.03273086
0.00986969 0.02309024 0.03273086
0.02008678 0.02309024 0.03273086
0.02989913 0.02309024 0.03273086
0.03946759 0.02309024 0.03273086
0.04895302 0.02309024 0.03273086
0.05851628 0.02309024 0.03273086
0.06831822 0.02309024 0.03273086
0.07851970 0.02309024 0.03273086
0.08928158 0.02309024 0.03273086
0.10076470 0.02309024 0.03273086
0.11312994 0.02309024 0.03273086
0.12653813 0.02309024 0.03273086
0.14115014 0.02309024 0.03273086
0.15712683 0.02309024 0.03273086
0.17462904 0.02309024 0.03273086
0.19381765 0.02309024 0.03273086
0.21485349 0.02309024 0.03273086
0.23789743 0.02309024 0.03273086
0.26311033 0.02309024 0.03273086
0.29065303 0.02309024 0.03273086
0.32068640 0.02309024 0.03273086
0.35337129 0.02309024 0.03273086
0.38886856 0.02309024 0.03273086
0.42733906 0.02309024 0.03273086
0.46894365 0.02309024 0.03273086
0.51384318 0.02309024 0.03273086
0.56219852 0.02309024 0.03273086
0.61417051 0.02309024 0.03273086
0.66992001 0.02309024 0.03273086
0.72960789 0.02309024 0.03273086
0.79339499 0.02309024 0.03273086
0.86144216 0.02309024 0.03273086
0.93391028 0.02309024 0.03273086
0.00986969 0.03012697 0.03273086
0.02008678 0.03012697 0.03273086
0.02989913 0.03012697 0.03273086
0.03946759 0.03012697 0.03273086
0.04895302 0.03012697 0.03273086
0.05851628 0.03012697 0.03273086
0.06831822 0.03012697 0.03273086
0.07851970 0.03012697 0.03273086
0.08928158 0.03012697 0.03273086
0.10076470 0.03012697 0.03273086
0.11312994 0.03012697 0.03273086
0.12653813 0.03012697 0.03273086
0.14115014 0.03012697 0.03273086
0.15712683 0.03012697 0.03273086
0.17462904 0.03012697 0.03273086
0.19381765 0.03012697 0.03273086
0.21485349 0.03012697 0.03273086
0.23789743 0.03012697 0.03273086
0.26311033 0.03012697 0.03273086
0.29065303 0.03012697 0.03273086
0.32068640 0.03012697 0.03273086
0.35337129 0.03012697 0.03273086
0.38886856 0.03012697 0.03273086
0.42733906 0.03012697 0.03273086
0.46894365 0.03012697 0.03273086
0.51384318 0.03012697 0.03273086
0.56219852 0.03012697 0.03273086
0.61417051 0.03012697 0.03273086
0.66992001 0.03012697 0.03273086
0.72960789 0.03012697 0.03273086
0.79339499 0.03012697 0.03273086
0.86144216 0.03012697 0.03273086
0.93391028 0.03012697 0.03273086
0.00986969 0.03788013 0.03273086
0.02008678 0.03788013 0.03273086
0.02989913 0.03788013 0.03273086
0.03946759 0.03788013 0.03273086
0.04895302 0.03788013 0.03273086
0.05851628 0.03788013 0.03273086
0.06831822 0.03788013 0.03273086
0.07851970 0.03788013 0.03273086
0.08928158 0.03788013 0.03273086
0.10076470 0.03788013 0.03273086
0.11312994 0.03788013 0.03273086
0.12653813 0.03788013 0.03273086
0.14115014 0.03788013 0.03273086
0.15712683 0.03788013 0.03273086
0.17462904 0.03788013 0.03273086
0.19381765 0.03788013 0.03273086
0.21485349 0.03788013 0.03273086
0.23789743 0.03788013 0.03273086
0.26311033 0.03788013 0.03273086
0.29065303 0.03788013 0.03273086
0.32068640 0.03788013 0.03273086
0.35337129 0.03788013 0.03273086
0.38886856 0.03788013 0.03273086
0.42733906 0.03788013 0.03273086
0.46894365 0.03788013 0.03273086
0.51384318 0.03788013 0.03273086
0.56219852 0.03788013 0.03273086
0.61417051 0.03788013 0.03273086
0.66992001 0.03788013 0.03273086
0.72960789 0.03788013 0.03273086
0.79339499 0.03788013 0.03273086
0.86144216 0.03788013 0.03273086
0.93391028 0.03788013 0.03273086
0.00986969 0.04642866 0.03273086
0.02008678 0.04642866 0.03273086
0.02989913 0.04642866 0.03273086
0.03946759 0.04642866 0.03273086
0.04895302 0.04642866 0.03273086
0.05851628 0.04642866 0.03273086
0.06831822 0.04642866 0.03273086
0.07851970 0.04642866 0.03273086
0.08928158 0.04642866 0.03273086
0.10076470 0.04642866 0.03273086
0.11312994 0.04642866 0.03273086
0.12653813 0.04642866 0.03273086
0.14115014 0.04642866 0.03273086
0.15712683 0.04642866 0.03273086
0.17462904 0.04642866 0.03273086
0.19381765 0.04642866 0.03273086
0.21485349 0.04642866 0.03273086
0.23789743 0.04642866 0.03273086
0.26311033 0.04642866 0.03273086
0.29065303 0.04642866 0.03273086
0.32068640 0.04642866 0.03273086
0.35337129 0.04642866 0.03273086
0.38886856 0.04642866 0.03273086
0.42733906 0.04642866 0.03273086
0.46894365 0.04642866 0.03273086
0.51384318 0.04642866 0.03273086
0.56219852 0.04642866 0.03273086
0.61417051 0.04642866 0.03273086
0.66992001 0.04642866 0.03273086
0.72960789 0.04642866 0.03273086
0.79339499 0.04642866 0.03273086
0.86144216 0.04642866 0.03273086
0.93391028 0.04642866 0.03273086
0.00986969 0.05585149 0.03273086
0.02008678 0.05585149 0.03273086
0.02989913 0.05585149 0.03273086
0.03946759 0.05585149 0.03273086
0.04895302 0.05585149 0.03273086
0.05851628 0.05585149 0.03273086
0.06831822 0.05585149 0.03273086
0.07851970 0.05585149 0.03273086
0.08928158 0.05585149 0.03273086
0.10076470 0.05585149 0.03273086
0.11312994 0.05585149 0.03273086
0.12653813 0.05585149 0.03273086
0.14115014 0.05585149 0.03273086
0.15712683 0.05585149 0.03273086
0.17462904 0.05585149 0.03273086
0.19381765 0.05585149 0.03273086
0.21485349 0.05585149 0.03273086
0.23789743 0.05585149 0.03273086
0.26311033 0.05585149 0.03273086
0.29065303 0.05585149 0.03273086
0.32068640 0.05585149 0.03273086
0.35337129 0.05585149 0.03273086
0.38886856 0.05585149 0.03273086
0.42733906 0.05585149 0.03273086
0.46894365 0.05585149 0.03273086
0.51384318 0.05585149 0.03273086
0.56219852 0.05585149 0.03273086
0.61417051 0.05585149 0.03273086
0.66992001 0.05585149 0.03273086
0.72960789 0.05585149 0.03273086
0.79339499 0.05585149 0.03273086
0.86144216 0.05585149 0.03273086
0.93391028 0.05585149 0.03273086
0.00986969 0.06622757 0.03273086
0.02008678 0.06622757 0.03273086
0.02989913 0.06622757 0.03273086
0.03946759 0.06622757 0.03273086
0.04895302 0.06622757 0.03273086
0.05851628 0.06622757 0.03273086
0.06831822 0.06622757 0.03273086
0.07851970 0.06622757 0.03273086
0.08928158 0.06622757 0.03273086
0.10076470 0.06622757 0.03273086
0.11312994 0.06622757 0.03273086
0.12653813 0.06622757 0.03273086
0.14115014 0.06622757 0.03273086
0.15712683 0.06622757 0.03273086
0.17462904 0.06622757 0.03273086
0.19381765 0.06622757 0.03273086
0.21485349 0.06622757 0.03273086
0.23789743 0.06622757 0.03273086
0.26311033 0.06622757 0.03273086
0.29065303 0.06622757 0.03273086
0.32068640 0.06622757 0.03273086
0.35337129 0.06622757 0.03273086
0.38886856 0.06622757 0.03273086
0.42733906 0.06622757 0.03273086
0.46894365 0.06622757 0.03273086
0.51384318 0.06622757 0.03273086
0.56219852 0.06622757 0.03273086
0.61417051 0.06622757 0.03273086
0.66992001 0.06622757 0.03273086
0.72960789 0.06622757 0.03273086
0.79339499 0.06622757 0.03273086
0.86144216 0.06622757 0.03273086
0.93391028 0.06622757 0.03273086
0.00986969 0.07763584 0.03273086
0.02008678 0.07763584 0.03273086
0.02989913 0.07763584 0.03273086
0.03946759 0.07763584 0.03273086
0.04895302 0.07763584 0.03273086
0.05851628 0.07763584 0.03273086
0.06831822 0.07763584 0.03273086
0.07851970 0.07763584 0.03273086
0.08928158 0.07763584 0.03273086
0.10076470 0.07763584 0.03273086
0.11312994 0.07763584 0.03273086
0.12653813 0.07763584 0.03273086
0.14115014 0.07763584 0.03273086
0.15712683 0.07763584 0.03273086
0.17462904 0.07763584 0.03273086
0.19381765 0.07763584 0.03273086
0.21485349 0.07763584 0.03273086
0.23789743 0.07763584 0.03273086
0.26311033 0.07763584 0.03273086
0.29065303 0.07763584 0.03273086
0.32068640 0.07763584 0.03273086
0.35337129 0.07763584 0.03273086
0.38886856 0.07763584 0.03273086
0.42733906 0.07763584 0.03273086
0.46894365 0.07763584 0.03273086
0.51384318 0.07763584 0.03273086
0.56219852 0.07763584 0.03273086
0.61417051 0.07763584 0.03273086
0.66992001 0.07763584 0.03273086
0.72960789 0.07763584 0.03273086
0.79339499 0.07763584 0.03273086
0.86144216 0.07763584 0.03273086
0.93391028 0.07763584 0.03273086
0.00986969 0.09015523 0.03273086
0.02008678 0.09015523 0.03273086
0.02989913 0.09015523 0.03273086
0.03946759 0.09015523 0.03273086
0.04895302 0.09015523 0.03273086
0.05851628 0.09015523 0.03273086
0.06831822 0.09015523 0.03273086
0.07851970 0.09015523 0.03273086
0.08928158 0.09015523 0.03273086
0.10076470 0.09015523 0.03273086
0.11312994 0.09015523 0.03273086
0.12653813 0.09015523 0.03273086
0.14115014 0.09015523 0.03273086
0.15712683 0.09015523 0.03273086
0.17462904 0.09015523 0.03273086
0.19381765 0.09015523 0.03273086
0.21485349 0.09015523 0.03273086
0.23789743 0.09015523 0.03273086
0.26311033 0.09015523 0.03273086
0.29065303 0.09015523 0.03273086
0.32068640 0.09015523 0.03273086
0.35337129 0.09015523 0.03273086
0.38886856 0.09015523 0.03273086
0.42733906 0.09015523 0.03273086
0.46894365 0.09015523 0.03273086
0.51384318 0.09015523 0.03273086
0.56219852 0.09015523 0.03273086
0.61417051 0.09015523 0.03273086
0.66992001 0.09015523 0.03273086
0.72960789 0.09015523 0.03273086
0.79339499 0.09015523 0.03273086
0.86144216 0.09015523 0.03273086
0.93391028 0.09015523 0.03273086
0.00986969 0.10386469 0.03273086
0.02008678 0.10386469 0.03273086
0.02989913 0.10386469 0.03273086
0.03946759 0.10386469 0.03273086
0.04895302 0.10386469 0.03273086
0.05851628 0.10386469 0.03273086
0.06831822 0.10386469 0.03273086
0.07851970 0.10386469 0.03273086
0.08928158 0.10386469 0.03273086
0.10076470 0.10386469 0.03273086
0.11312994 0.10386469 0.03273086
0.12653813 0.10386469 0.03273086
0.14115014 0.10386469 0.03273086
0.15712683 0.10386469 0.03273086
0.17462904 0.10386469 0.03273086
0.19381765 0.10386469 0.03273086
0.21485349 0.10386469 0.03273086
0.23789743 0.10386469 0.03273086
0.26311033 0.10386469 0.03273086
0.29065303 0.10386469 0.03273086
0.32068640 0.10386469 0.03273086
0.35337129 0.10386469 0.03273086
0.38886856 0.10386469 0.03273086
0.42733906 0.10386469 0.03273086
0.46894365 0.10386469 0.03273086
0.51384318 0.10386469 0.03273086
0.56219852 0.10386469 0.03273086
0.61417051 0.10386469 0.03273086
0.66992001 0.10386469 0.03273086
0.72960789 0.10386469 0.03273086
0.79339499 0.10386469 0.03273086
0.86144216 0.10386469 0.03273086
0.93391028 0.10386469 0.03273086
0.00986969 0.11884316 0.03273086
0.02008678 0.11884316 0.03273086
0.02989913 0.11884316 0.03273086
0.03946759 0.11884316 0.03273086
0.04895302 0.11884316 0.03273086
0.05851628 0.11884316 0.03273086
0.06831822 0.11884316 0.03273086
0.07851970 0.11884316 0.03273086
0.08928158 0.11884316 0.03273086
0.10076470 0.11884316 0.03273086
0.11312994 0.11884316 0.03273086
0.12653813 0.11884316 0.03273086
0.14115014 0.11884316 0.03273086
0.15712683 0.11884316 0.03273086
0.17462904 0.11884316 0.03273086
0.19381765 0.11884316 0.03273086
0.21485349 0.11884316 0.03273086
0.23789743 0.11884316 0.03273086
0.26311033 0.11884316 0.03273086
0.29065303 0.11884316 0.03273086
0.32068640 0.11884316 0.03273086
0.35337129 0.11884316 0.03273086
0.38886856 0.11884316 0.03273086
0.42733906 0.11884316 0.03273086
0.46894365 0.11884316 0.03273086
0.51384318 0.11884316 0.03273086
0.56219852 0.11884316 0.03273086
0.61417051 0.11884316 0.03273086
0.66992001 0.11884316 0.03273086
0.72960789 0.11884316 0.03273086
0.79339499 0.11884316 0.03273086
0.86144216 0.11884316 0.03273086
0.93391028 0.11884316 0.03273086
0.00986969 0.13516957 0.03273086
0.02008678 0.13516957 0.03273086
0.02989913 0.13516957 0.03273086
0.03946759 0.13516957 0.03273086
0.04895302 0.13516957 0.03273086
0.05851628 0.13516957 0.03273086
0.06831822 0.13516957 0.03273086
0.07851970 0.13516957 0.03273086
0.08928158 0.13516957 0.03273086
0.10076470 0.13516957 0.03273086
0.11312994 0.13516957 0.03273086
0.12653813 0.13516957 0.03273086
0.14115014 0.13516957 0.03273086
0.15712683 0.13516957 0.03273086
0.17462904 0.13516957 0.03273086
0.19381765 0.13516957 0.03273086
0.21485349 0.13516957 0.03273086
0.23789743 0.13516957 0.03273086
0.26311033 0.13516957 0.03273086
0.29065303 0.13516957 0.03273086
0.32068640 0.13516957 0.03273086
0.35337129 0.13516957 0.03273086
0.38886856 0.13516957 0.03273086
0.42733906 0.13516957 0.03273086
0.46894365 0.13516957 0.03273086
0.51384318 0.13516957 0.03273086
0.56219852 0.13516957 0.03273086
0.61417051 0.13516957 0.03273086
0.66992001 0.13516957 0.03273086
0.72960789 0.13516957 0.03273086
0.79339499 0.13516957 0.03273086
0.86144216 0.13516957 0.03273086
0.93391028 0.13516957 0.03273086
0.00986969 0.15292287 0.03273086
0.02008678 0.15292287 0.03273086
0.02989913 0.15292287 0.03273086
0.03946759 0.15292287 0.03273086
0.04895302 0.15292287 0.03273086
0.05851628 0.15292287 0.03273086
0.06831822 0.15292287 0.03273086
0.07851970 0.15292287 0.03273086
0.08928158 0.15292287 0.03273086
0.10076470 0.15292287 0.03273086
0.11312994 0.15292287 0.03273086
0.12653813 0.15292287 0.03273086
0.14115014 0.15292287 0.03273086
0.15712683 0.15292287 0.03273086
0.17462904 0.15292287 0.03273086
0.19381765 0.15292287 0.03273086
0.21485349 0.15292287 0.03273086
0.23789743 0.15292287 0.03273086
0.26311033 0.15292287 0.03273086
0.29065303 0.15292287 0.03273086
0.32068640 0.15292287 0.03273086
0.35337129 0.15292287 0.03273086
0.38886856 0.15292287 0.03273086
0.42733906 0.15292287 0.03273086
0.46894365 0.15292287 0.03273086
0.51384318 0.15292287 0.03273086
0.56219852 0.15292287 0.03273086
0.61417051 0.15292287 0.03273086
0.66992001 0.15292287 0.03273086
0.72960789 0.15292287 0.03273086
0.79339499 0.15292287 0.03273086
0.86144216 0.15292287 0.03273086
0.93391028 0.15292287 0.03273086
0.00986969 0.17218199 0.03273086
0.02008678 0.17218199 0.03273086
0.02989913 0.17218199 0.03273086
0.03946759 0.17218199 0.03273086
0.04895302 0.17218199 0.03273086
0.05851628 0.17218199 0.03273086
0.06831822 0.17218199 0.03273086
0.07851970 0.17218199 0.03273086
0.08928158 0.17218199 0.03273086
0.10076470 0.17218199 0.03273086
0.11312994 0.17218199 0.03273086
0.12653813 0.17218199 0.03273086
0.14115014 0.17218199 0.03273086
0.15712683 0.17218199 0.03273086
0.17462904 0.17218199 0.03273086
0.19381765 0.17218199 0.03273086
0.21485349 0.17218199 0.03273086
0.23789743 0.17218199 0.03273086
0.26311033 0.17218199 0.03273086
0.29065303 0.17218199 0.03273086
0.32068640 0.17218199 0.03273086
0.35337129 0.17218199 0.03273086
0.38886856 0.17218199 0.03273086
0.42733906 0.17218199 0.03273086
0.46894365 0.17218199 0.03273086
0.51384318 0.17218199 0.03273086
0.56219852 0.17218199 0.03273086
0.61417051 0.17218199 0.03273086
0.66992001 0.17218199 0.03273086
0.72960789 0.17218199 0.03273086
0.79339499 0.17218199 0.03273086
0.86144216 0.17218199 0.03273086
0.93391028 0.17218199 0.03273086
0.00986969 0.19302587 0.03273086
0.02008678 0.19302587 0.03273086
0.02989913 0.19302587 0.03273086
0.03946759 0.19302587 0.03273086
0.04895302 0.19302587 0.03273086
0.05851628 0.19302587 0.03273086
0.06831822 0.19302587 0.03273086
0.07851970 0.19302587 0.03273086
0.08928158 0.19302587 0.03273086
0.10076470 0.19302587 0.03273086
0.11312994 0.19302587 0.03273086
0.12653813 0.19302587 0.03273086
0.14115014 0.19302587 0.03273086
0.15712683 0.19302587 0.03273086
0.17462904 0.19302587 0.03273086
0.19381765 0.19302587 0.03273086
0.21485349 0.19302587 0.03273086
0.23789743 0.19302587 0.03273086
0.26311033 0.19302587 0.03273086
0.29065303 0.19302587 0.03273086
0.32068640 0.19302587 0.03273086
0.35337129 0.19302587 0.03273086
0.38886856 0.19302587 0.03273086
0.42733906 0.19302587 0.03273086
0.46894365 0.19302587 0.03273086
0.51384318 0.19302587 0.03273086
0.56219852 0.19302587 0.03273086
0.61417051 0.19302587 0.03273086
0.66992001 0.19302587 0.03273086
0.72960789 0.19302587 0.03273086
0.79339499 0.19302587 0.03273086
0.86144216 0.19302587 0.03273086
0.93391028 0.19302587 0.03273086
0.00986969 0.21553346 0.03273086
0.02008678 0.21553346 0.03273086
0.02989913 0.21553346 0.03273086
0.03946759 0.21553346 0.03273086
0.04895302 0.21553346 0.03273086
0.05851628 0.21553346 0.03273086
0.06831822 0.21553346 0.03273086
0.07851970 0.21553346 0.03273086
0.08928158 0.21553346 0.03273086
0.10076470 0.21553346 0.03273086
0.11312994 0.21553346 0.03273086
0.12653813 0.21553346 0.03273086
0.14115014 0.21553346 0.03273086
0.15712683 0.21553346 0.03273086
0.17462904 0.21553346 0.03273086
0.19381765 0.21553346 0.03273086
0.21485349 0.21553346 0.03273086
0.23789743 0.21553346 0.03273086
0.26311033 0.21553346 0.03273086
0.29065303 0.21553346 0.03273086
0.32068640 0.21553346 0.03273086
0.35337129 0.21553346 0.03273086
0.38886856 0.21553346 0.03273086
0.42733906 0.21553346 0.03273086
0.46894365 0.21553346 0.03273086
0.51384318 0.21553346 0.03273086
0.56219852 0.21553346 0.03273086
0.61417051 0.21553346 0.03273086
0.66992001 0.21553346 0.03273086
0.72960789 0.21553346 0.03273086
0.79339499 0.21553346 0.03273086
0.86144216 0.21553346 0.03273086
0.93391028 0.21553346 0.03273086
0.00986969 0.23978369 0.03273086
0.02008678 0.23978369 0.03273086
0.02989913 0.23978369 0.03273086
0.03946759 0.23978369 0.03273086
0.04895302 0.23978369 0.03273086
0.05851628 0.23978369 0.03273086
0.06831822 0.23978369 0.03273086
0.07851970 0.23978369 0.03273086
0.08928158 0.23978369 0.03273086
0.10076470 0.23978369 0.03273086
0.11312994 0.23978369 0.03273086
0.12653813 0.23978369 0.03273086
0.14115014 0.23978369 0.03273086
0.15712683 0.23978369 0.03273086
0.17462904 0.23978369 0.03273086
0.19381765 0.23978369 0.03273086
0.21485349 0.23978369 0.03273086
0.23789743 0.23978369 0.03273086
0.26311033 0.23978369 0.03273086
0.29065303 0.23978369 0.03273086
0.32068640 0.23978369 0.03273086
0.35337129 0.23978369 0.03273086
0.38886856 0.23978369 0.03273086
0.42733906 0.23978369 0.03273086
0.46894365 0.23978369 0.03273086
0.51384318 0.23978369 0.03273086
0.56219852 0.23978369 0.03273086
0.61417051 0.23978369 0.03273086
0.66992001 0.23978369 0.03273086
0.72960789 0.23978369 0.03273086
0.79339499 0.23978369 0.03273086
0.86144216 0.23978369 0.03273086
0.93391028 0.23978369 0.03273086
0.00986969 0.26585551 0.03273086
0.02008678 0.26585551 0.03273086
0.02989913 0.26585551 0.03273086
0.03946759 0.26585551 0.03273086
0.04895302 0.26585551 0.03273086
0.05851628 0.26585551 0.03273086
0.06831822 0.26585551 0.03273086
0.07851970 0.26585551 0.03273086
0.08928158 0.26585551 0.03273086
0.10076470 0.26585551 0.03273086
0.11312994 0.26585551 0.03273086
0.12653813 0.26585551 0.03273086
0.14115014 0.26585551 0.03273086
0.15712683 0.26585551 0.03273086
0.17462904 0.26585551 0.03273086
0.19381765 0.26585551 0.03273086
0.21485349 0.26585551 0.03273086
0.23789743 0.26585551 0.03273086
0.26311033 0.26585551 0.03273086
0.29065303 0.26585551 0.03273086
0.32068640 0.26585551 0.03273086
0.35337129 0.26585551 0.03273086
0.38886856 0.26585551 0.03273086
0.42733906 0.26585551 0.03273086
0.46894365 0.26585551 0.03273086
0.51384318 0.26585551 0.03273086
0.56219852 0.26585551 0.03273086
0.61417051 0.26585551 0.03273086
0.66992001 0.26585551 0.03273086
0.72960789 0.26585551 0.03273086
0.79339499 0.26585551 0.03273086
0.86144216 0.26585551 0.03273086
0.93391028 0.26585551 0.03273086
0.00986969 0.29382785 0.03273086
0.02008678 0.29382785 0.03273086
0.02989913 0.29382785 0.03273086
0.03946759 0.29382785 0.03273086
0.04895302 0.29382785 0.03273086
0.05851628 0.29382785 0.03273086
0.06831822 0.29382785 0.03273086
0.07851970 0.29382785 0.03273086
0.08928158 0.29382785 0.03273086
0.10076470 0.29382785 0.03273086
0.11312994 0.29382785 0.03273086
0.12653813 0.29382785 0.03273086
0.14115014 0.29382785 0.03273086
0.15712683 0.29382785 0.03273086
0.17462904 0.29382785 0.03273086
0.19381765 0.29382785 0.03273086
0.21485349 0.29382785 0.03273086
0.23789743 0.29382785 0.03273086
0.26311033 0.29382785 0.03273086
0.29065303 0.29382785 0.03273086
0.32068640 0.29382785 0.03273086
0.35337129 0.29382785 0.03273086
0.38886856 0.29382785 0.03273086
0.42733906 0.29382785 0.03273086
0.46894365 0.29382785 0.03273086
0.51384318 0.29382785 0.03273086
0.56219852 0.29382785 0.03273086
0.61417051 0.29382785 0.03273086
0.66992001 0.29382785 0.03273086
0.72960789 0.29382785 0.03273086
0.79339499 0.29382785 0.03273086
0.86144216 0.29382785 0.03273086
0.93391028 0.29382785 0.03273086
0.00986969 0.32377965 0.03273086
0.02008678 0.32377965 0.03273086
0.02989913 0.32377965 0.03273086
0.03946759 0.32377965 0.03273086
0.04895302 0.32377965 0.03273086
0.05851628 0.32377965 0.03273086
0.06831822 0.32377965 0.03273086
0.07851970 0.32377965 0.03273086
0.08928158 0.32377965 0.03273086
0.10076470 0.32377965 0.03273086
0.11312994 0.32377965 0.03273086
0.12653813 0.32377965 0.03273086
0.14115014 0.32377965 0.03273086
0.15712683 0.32377965 0.03273086
0.17462904 0.32377965 0.03273086
0.19381765 0.32377965 0.03273086
0.21485349 0.32377965 0.03273086
0.23789743 0.32377965 0.03273086
0.26311033 0.32377965 0.03273086
0.29065303 0.32377965 0.03273086
0.32068640 0.32377965 0.03273086
0.35337129 0.32377965 0.03273086
0.38886856 0.32377965 0.03273086
0.42733906 0.32377965 0.03273086
0.46894365 0.32377965 0.03273086
0.51384318 0.32377965 0.03273086
0.56219852 0.32377965 0.03273086
0.61417051 0.32377965 0.03273086
0.66992001 0.32377965 0.03273086
0.72960789 0.32377965 0.03273086
0.79339499 0.32377965 0.03273086
0.86144216 0.32377965 0.03273086
0.93391028 0.32377965 0.03273086
0.00986969 0.35578985 0.03273086
0.02008678 0.35578985 0.03273086
0.02989913 0.35578985 0.03273086
0.03946759 0.35578985 0.03273086
0.04895302 0.35578985 0.03273086
0.05851628 0.35578985 0.03273086
0.06831822 0.35578985 0.03273086
0.07851970 0.35578985 0.03273086
0.08928158 0.35578985 0.03273086
0.10076470 0.35578985 0.03273086
0.11312994 0.35578985 0.03273086
0.12653813 0.35578985 0.03273086
0.14115014 0.35578985 0.03273086
0.15712683 0.35578985 0.03273086
0.17462904 0.35578985 0.03273086
0.19381765 0.35578985 0.03273086
0.21485349 0.35578985 0.03273086
0.23789743 0.35578985 0.03273086
0.26311033 0.35578985 0.03273086
0.29065303 0.35578985 0.03273086
0.32068640 0.35578985 0.03273086
0.35337129 0.35578985 0.03273086
0.38886856 0.35578985 0.03273086
0.42733906 0.35578985 0.03273086
0.46894365 0.35578985 0.03273086
0.51384318 0.35578985 0.03273086
0.56219852 0.35578985 0.03273086
0.61417051 0.35578985 0.03273086
0.66992001 0.35578985 0.03273086
0.72960789 0.35578985 0.03273086
