fixtures/media/authorized-real-v2/target-guided-grade-v1.cube
TITLE "NodeVideo authorized target-guided grade v1"
LUT_3D_SIZE 9
DOMAIN_MIN 0.0 0.0 0.0
DOMAIN_MAX 1.0 1.0 1.0
0.00986969 0.01085031 0.03273086
0.04895302 0.01085031 0.03273086
0.08928158 0.01085031 0.03273086
0.14115014 0.01085031 0.03273086
0.21485349 0.01085031 0.03273086
0.32068640 0.01085031 0.03273086
0.46894365 0.01085031 0.03273086
0.66992001 0.01085031 0.03273086
0.93391028 0.01085031 0.03273086
0.00986969 0.03788013 0.03273086
0.04895302 0.03788013 0.03273086
0.08928158 0.03788013 0.03273086
0.14115014 0.03788013 0.03273086
0.21485349 0.03788013 0.03273086
0.32068640 0.03788013 0.03273086
0.46894365 0.03788013 0.03273086
0.66992001 0.03788013 0.03273086
0.93391028 0.03788013 0.03273086
0.00986969 0.07763584 0.03273086
0.04895302 0.07763584 0.03273086
0.08928158 0.07763584 0.03273086
0.14115014 0.07763584 0.03273086
0.21485349 0.07763584 0.03273086
0.32068640 0.07763584 0.03273086
0.46894365 0.07763584 0.03273086
0.66992001 0.07763584 0.03273086
0.93391028 0.07763584 0.03273086
0.00986969 0.13516957 0.03273086
0.04895302 0.13516957 0.03273086
0.08928158 0.13516957 0.03273086
0.14115014 0.13516957 0.03273086
0.21485349 0.13516957 0.03273086
0.32068640 0.13516957 0.03273086
0.46894365 0.13516957 0.03273086
0.66992001 0.13516957 0.03273086
0.93391028 0.13516957 0.03273086
0.00986969 0.21553346 0.03273086
0.04895302 0.21553346 0.03273086
0.08928158 0.21553346 0.03273086
0.14115014 0.21553346 0.03273086
0.21485349 0.21553346 0.03273086
0.32068640 0.21553346 0.03273086
0.46894365 0.21553346 0.03273086
0.66992001 0.21553346 0.03273086
0.93391028 0.21553346 0.03273086
0.00986969 0.32377965 0.03273086
0.04895302 0.32377965 0.03273086
0.08928158 0.32377965 0.03273086
0.14115014 0.32377965 0.03273086
0.21485349 0.32377965 0.03273086
0.32068640 0.32377965 0.03273086
0.46894365 0.32377965 0.03273086
0.66992001 0.32377965 0.03273086
0.93391028 0.32377965 0.03273086
0.00986969 0.46496027 0.03273086
0.04895302 0.46496027 0.03273086
0.08928158 0.46496027 0.03273086
0.14115014 0.46496027 0.03273086
0.21485349 0.46496027 0.03273086
0.32068640 0.46496027 0.03273086
0.46894365 0.46496027 0.03273086
0.66992001 0.46496027 0.03273086
0.93391028 0.46496027 0.03273086
0.00986969 0.64412747 0.03273086
0.04895302 0.64412747 0.03273086
0.08928158 0.64412747 0.03273086
0.14115014 0.64412747 0.03273086
0.21485349 0.64412747 0.03273086
0.32068640 0.64412747 0.03273086
0.46894365 0.64412747 0.03273086
0.66992001 0.64412747 0.03273086
0.93391028 0.64412747 0.03273086
0.00986969 0.86633338 0.03273086
0.04895302 0.86633338 0.03273086
0.08928158 0.86633338 0.03273086
0.14115014 0.86633338 0.03273086
0.21485349 0.86633338 0.03273086
0.32068640 0.86633338 0.03273086
0.46894365 0.86633338 0.03273086
0.66992001 0.86633338 0.03273086
0.93391028 0.86633338 0.03273086
0.00986969 0.01085031 0.05545268
0.04895302 0.01085031 0.05545268
0.08928158 0.01085031 0.05545268
0.14115014 0.01085031 0.05545268
0.21485349 0.01085031 0.05545268
0.32068640 0.01085031 0.05545268
0.46894365 0.01085031 0.05545268
0.66992001 0.01085031 0.05545268
0.93391028 0.01085031 0.05545268
0.00986969 0.03788013 0.05545268
0.04895302 0.03788013 0.05545268
0.08928158 0.03788013 0.05545268
0.14115014 0.03788013 0.05545268
0.21485349 0.03788013 0.05545268
0.32068640 0.03788013 0.05545268
0.46894365 0.03788013 0.05545268
0.66992001 0.03788013 0.05545268
0.93391028 0.03788013 0.05545268
0.00986969 0.07763584 0.05545268
0.04895302 0.07763584 0.05545268
0.08928158 0.07763584 0.05545268
0.14115014 0.07763584 0.05545268
0.21485349 0.07763584 0.05545268
0.32068640 0.07763584 0.05545268
0.46894365 0.07763584 0.05545268
0.66992001 0.07763584 0.05545268
0.93391028 0.07763584 0.05545268
0.00986969 0.13516957 0.05545268
0.04895302 0.13516957 0.05545268
0.08928158 0.13516957 0.05545268
0.14115014 0.13516957 0.05545268
0.21485349 0.13516957 0.05545268
0.32068640 0.13516957 0.05545268
0.46894365 0.13516957 0.05545268
0.66992001 0.13516957 0.05545268
0.93391028 0.13516957 0.05545268
0.00986969 0.21553346 0.05545268
0.04895302 0.21553346 0.05545268
0.08928158 0.21553346 0.05545268
0.14115014 0.21553346 0.05545268
0.21485349 0.21553346 0.05545268
0.32068640 0.21553346 0.05545268
0.46894365 0.21553346 0.05545268
0.66992001 0.21553346 0.05545268
0.93391028 0.21553346 0.05545268
0.00986969 0.32377965 0.05545268
0.04895302 0.32377965 0.05545268
0.08928158 0.32377965 0.05545268
0.14115014 0.32377965 0.05545268
0.21485349 0.32377965 0.05545268
0.32068640 0.32377965 0.05545268
0.46894365 0.32377965 0.05545268
0.66992001 0.32377965 0.05545268
0.93391028 0.32377965 0.05545268
0.00986969 0.46496027 0.05545268
0.04895302 0.46496027 0.05545268
0.08928158 0.46496027 0.05545268
0.14115014 0.46496027 0.05545268
0.21485349 0.46496027 0.05545268
0.32068640 0.46496027 0.05545268
0.46894365 0.46496027 0.05545268
0.66992001 0.46496027 0.05545268
0.93391028 0.46496027 0.05545268
0.00986969 0.64412747 0.05545268
0.04895302 0.64412747 0.05545268
0.08928158 0.64412747 0.05545268
0.14115014 0.64412747 0.05545268
0.21485349 0.64412747 0.05545268
0.32068640 0.64412747 0.05545268
0.46894365 0.64412747 0.05545268
0.66992001 0.64412747 0.05545268
0.93391028 0.64412747 0.05545268
0.00986969 0.86633338 0.05545268
0.04895302 0.86633338 0.05545268
0.08928158 0.86633338 0.05545268
0.14115014 0.86633338 0.05545268
0.21485349 0.86633338 0.05545268
0.32068640 0.86633338 0.05545268
0.46894365 0.86633338 0.05545268
0.66992001 0.86633338 0.05545268
0.93391028 0.86633338 0.05545268
0.00986969 0.01085031 0.09930231
0.04895302 0.01085031 0.09930231
0.08928158 0.01085031 0.09930231
0.14115014 0.01085031 0.09930231
0.21485349 0.01085031 0.09930231
0.32068640 0.01085031 0.09930231
0.46894365 0.01085031 0.09930231
0.66992001 0.01085031 0.09930231
0.93391028 0.01085031 0.09930231
0.00986969 0.03788013 0.09930231
0.04895302 0.03788013 0.09930231
0.08928158 0.03788013 0.09930231
0.14115014 0.03788013 0.09930231
0.21485349 0.03788013 0.09930231
0.32068640 0.03788013 0.09930231
0.46894365 0.03788013 0.09930231
0.66992001 0.03788013 0.09930231
0.93391028 0.03788013 0.09930231
0.00986969 0.07763584 0.09930231
0.04895302 0.07763584 0.09930231
0.08928158 0.07763584 0.09930231
0.14115014 0.07763584 0.09930231
0.21485349 0.07763584 0.09930231
0.32068640 0.07763584 0.09930231
0.46894365 0.07763584 0.09930231
0.66992001 0.07763584 0.09930231
0.93391028 0.07763584 0.09930231
0.00986969 0.13516957 0.09930231
0.04895302 0.13516957 0.09930231
0.08928158 0.13516957 0.09930231
0.14115014 0.13516957 0.09930231
0.21485349 0.13516957 0.09930231
0.32068640 0.13516957 0.09930231
0.46894365 0.13516957 0.09930231
0.66992001 0.13516957 0.09930231
0.93391028 0.13516957 0.09930231
0.00986969 0.21553346 0.09930231
0.04895302 0.21553346 0.09930231
0.08928158 0.21553346 0.09930231
0.14115014 0.21553346 0.09930231
0.21485349 0.21553346 0.09930231
0.32068640 0.21553346 0.09930231
0.46894365 0.21553346 0.09930231
0.66992001 0.21553346 0.09930231
0.93391028 0.21553346 0.09930231
0.00986969 0.32377965 0.09930231
0.04895302 0.32377965 0.09930231
0.08928158 0.32377965 0.09930231
0.14115014 0.32377965 0.09930231
0.21485349 0.32377965 0.09930231
0.32068640 0.32377965 0.09930231
0.46894365 0.32377965 0.09930231
0.66992001 0.32377965 0.09930231
0.93391028 0.32377965 0.09930231
0.00986969 0.46496027 0.09930231
0.04895302 0.46496027 0.09930231
0.08928158 0.46496027 0.09930231
0.14115014 0.46496027 0.09930231
0.21485349 0.46496027 0.09930231
0.32068640 0.46496027 0.09930231
0.46894365 0.46496027 0.09930231
0.66992001 0.46496027 0.09930231
0.93391028 0.46496027 0.09930231
0.00986969 0.64412747 0.09930231
0.04895302 0.64412747 0.09930231
0.08928158 0.64412747 0.09930231
0.14115014 0.64412747 0.09930231
0.21485349 0.64412747 0.09930231
0.32068640 0.64412747 0.09930231
0.46894365 0.64412747 0.09930231
0.66992001 0.64412747 0.09930231
0.93391028 0.64412747 0.09930231
0.00986969 0.86633338 0.09930231
0.04895302 0.86633338 0.09930231
0.08928158 0.86633338 0.09930231
0.14115014 0.86633338 0.09930231
0.21485349 0.86633338 0.09930231
0.32068640 0.86633338 0.09930231
0.46894365 0.86633338 0.09930231
0.66992001 0.86633338 0.09930231
0.93391028 0.86633338 0.09930231
0.00986969 0.01085031 0.16447787
0.04895302 0.01085031 0.16447787
0.08928158 0.01085031 0.16447787
0.14115014 0.01085031 0.16447787
0.21485349 0.01085031 0.16447787
0.32068640 0.01085031 0.16447787
0.46894365 0.01085031 0.16447787
0.66992001 0.01085031 0.16447787
0.93391028 0.01085031 0.16447787
0.00986969 0.03788013 0.16447787
0.04895302 0.03788013 0.16447787
0.08928158 0.03788013 0.16447787
0.14115014 0.03788013 0.16447787
0.21485349 0.03788013 0.16447787
0.32068640 0.03788013 0.16447787
0.46894365 0.03788013 0.16447787
0.66992001 0.03788013 0.16447787
0.93391028 0.03788013 0.16447787
0.00986969 0.07763584 0.16447787
0.04895302 0.07763584 0.16447787
0.08928158 0.07763584 0.16447787
0.14115014 0.07763584 0.16447787
0.21485349 0.07763584 0.16447787
0.32068640 0.07763584 0.16447787
0.46894365 0.07763584 0.16447787
0.66992001 0.07763584 0.16447787
0.93391028 0.07763584 0.16447787
0.00986969 0.13516957 0.16447787
0.04895302 0.13516957 0.16447787
0.08928158 0.13516957 0.16447787
0.14115014 0.13516957 0.16447787
0.21485349 0.13516957 0.16447787
0.32068640 0.13516957 0.16447787
0.46894365 0.13516957 0.16447787
0.66992001 0.13516957 0.16447787
0.93391028 0.13516957 0.16447787
0.00986969 0.21553346 0.16447787
0.04895302 0.21553346 0.16447787
0.08928158 0.21553346 0.16447787
0.14115014 0.21553346 0.16447787
0.21485349 0.21553346 0.16447787
0.32068640 0.21553346 0.16447787
0.46894365 0.21553346 0.16447787
0.66992001 0.21553346 0.16447787
0.93391028 0.21553346 0.16447787
0.00986969 0.32377965 0.16447787
0.04895302 0.32377965 0.16447787
0.08928158 0.32377965 0.16447787
0.14115014 0.32377965 0.16447787
0.21485349 0.32377965 0.16447787
0.32068640 0.32377965 0.16447787
0.46894365 0.32377965 0.16447787
0.66992001 0.32377965 0.16447787
0.93391028 0.32377965 0.16447787
0.00986969 0.46496027 0.16447787
0.04895302 0.46496027 0.16447787
0.08928158 0.46496027 0.16447787
0.14115014 0.46496027 0.16447787
0.21485349 0.46496027 0.16447787
0.32068640 0.46496027 0.16447787
0.46894365 0.46496027 0.16447787
0.66992001 0.46496027 0.16447787
0.93391028 0.46496027 0.16447787
0.00986969 0.64412747 0.16447787
0.04895302 0.64412747 0.16447787
0.08928158 0.64412747 0.16447787
0.14115014 0.64412747 0.16447787
0.21485349 0.64412747 0.16447787
0.32068640 0.64412747 0.16447787
0.46894365 0.64412747 0.16447787
0.66992001 0.64412747 0.16447787
0.93391028 0.64412747 0.16447787
0.00986969 0.86633338 0.16447787
0.04895302 0.86633338 0.16447787
0.08928158 0.86633338 0.16447787
0.14115014 0.86633338 0.16447787
0.21485349 0.86633338 0.16447787
0.32068640 0.86633338 0.16447787
0.46894365 0.86633338 0.16447787
0.66992001 0.86633338 0.16447787
0.93391028 0.86633338 0.16447787
0.00986969 0.01085031 0.25117749
0.04895302 0.01085031 0.25117749
0.08928158 0.01085031 0.25117749
0.14115014 0.01085031 0.25117749
0.21485349 0.01085031 0.25117749
0.32068640 0.01085031 0.25117749
0.46894365 0.01085031 0.25117749
0.66992001 0.01085031 0.25117749
0.93391028 0.01085031 0.25117749
0.00986969 0.03788013 0.25117749
0.04895302 0.03788013 0.25117749
0.08928158 0.03788013 0.25117749
0.14115014 0.03788013 0.25117749
0.21485349 0.03788013 0.25117749
0.32068640 0.03788013 0.25117749
0.46894365 0.03788013 0.25117749
0.66992001 0.03788013 0.25117749
0.93391028 0.03788013 0.25117749
0.00986969 0.07763584 0.25117749
0.04895302 0.07763584 0.25117749
0.08928158 0.07763584 0.25117749
0.14115014 0.07763584 0.25117749
0.21485349 0.07763584 0.25117749
0.32068640 0.07763584 0.25117749
0.46894365 0.07763584 0.25117749
0.66992001 0.07763584 0.25117749
0.93391028 0.07763584 0.25117749
0.00986969 0.13516957 0.25117749
0.04895302 0.13516957 0.25117749
0.08928158 0.13516957 0.25117749
0.14115014 0.13516957 0.25117749
0.21485349 0.13516957 0.25117749
0.32068640 0.13516957 0.25117749
0.46894365 0.13516957 0.25117749
0.66992001 0.13516957 0.25117749
0.93391028 0.13516957 0.25117749
0.00986969 0.21553346 0.25117749
0.04895302 0.21553346 0.25117749
0.08928158 0.21553346 0.25117749
0.14115014 0.21553346 0.25117749
0.21485349 0.21553346 0.25117749
0.32068640 0.21553346 0.25117749
0.46894365 0.21553346 0.25117749
0.66992001 0.21553346 0.25117749
0.93391028 0.21553346 0.25117749
0.00986969 0.32377965 0.25117749
0.04895302 0.32377965 0.25117749
0.08928158 0.32377965 0.25117749
0.14115014 0.32377965 0.25117749
0.21485349 0.32377965 0.25117749
0.32068640 0.32377965 0.25117749
0.46894365 0.32377965 0.25117749
0.66992001 0.32377965 0.25117749
0.93391028 0.32377965 0.25117749
0.00986969 0.46496027 0.25117749
0.04895302 0.46496027 0.25117749
0.08928158 0.46496027 0.25117749
0.14115014 0.46496027 0.25117749
0.21485349 0.46496027 0.25117749
0.32068640 0.46496027 0.25117749
0.46894365 0.46496027 0.25117749
0.66992001 0.46496027 0.25117749
0.93391028 0.46496027 0.25117749
0.00986969 0.64412747 0.25117749
0.04895302 0.64412747 0.25117749
0.08928158 0.64412747 0.25117749
0.14115014 0.64412747 0.25117749
0.21485349 0.64412747 0.25117749
0.32068640 0.64412747 0.25117749
0.46894365 0.64412747 0.25117749
0.66992001 0.64412747 0.25117749
0.93391028 0.64412747 0.25117749
0.00986969 0.86633338 0.25117749
0.04895302 0.86633338 0.25117749
0.08928158 0.86633338 0.25117749
0.14115014 0.86633338 0.25117749
0.21485349 0.86633338 0.25117749
0.32068640 0.86633338 0.25117749
0.46894365 0.86633338 0.25117749
0.66992001 0.86633338 0.25117749
0.93391028 0.86633338 0.25117749
0.00986969 0.01085031 0.35959927
0.04895302 0.01085031 0.35959927
0.08928158 0.01085031 0.35959927
0.14115014 0.01085031 0.35959927
0.21485349 0.01085031 0.35959927
0.32068640 0.01085031 0.35959927
0.46894365 0.01085031 0.35959927
0.66992001 0.01085031 0.35959927
0.93391028 0.01085031 0.35959927
0.00986969 0.03788013 0.35959927
0.04895302 0.03788013 0.35959927
0.08928158 0.03788013 0.35959927
0.14115014 0.03788013 0.35959927
0.21485349 0.03788013 0.35959927
0.32068640 0.03788013 0.35959927
0.46894365 0.03788013 0.35959927
0.66992001 0.03788013 0.35959927
0.93391028 0.03788013 0.35959927
0.00986969 0.07763584 0.35959927
0.04895302 0.07763584 0.35959927
0.08928158 0.07763584 0.35959927
0.14115014 0.07763584 0.35959927
0.21485349 0.07763584 0.35959927
0.32068640 0.07763584 0.35959927
0.46894365 0.07763584 0.35959927
0.66992001 0.07763584 0.35959927
0.93391028 0.07763584 0.35959927
0.00986969 0.13516957 0.35959927
0.04895302 0.13516957 0.35959927
0.08928158 0.13516957 0.35959927
0.14115014 0.13516957 0.35959927
0.21485349 0.13516957 0.35959927
0.32068640 0.13516957 0.35959927
0.46894365 0.13516957 0.35959927
0.66992001 0.13516957 0.35959927
0.93391028 0.13516957 0.35959927
0.00986969 0.21553346 0.35959927
0.04895302 0.21553346 0.35959927
0.08928158 0.21553346 0.35959927
0.14115014 0.21553346 0.35959927
0.21485349 0.21553346 0.35959927
0.32068640 0.21553346 0.35959927
0.46894365 0.21553346 0.35959927
0.66992001 0.21553346 0.35959927
0.93391028 0.21553346 0.35959927
0.00986969 0.32377965 0.35959927
0.04895302 0.32377965 0.35959927
0.08928158 0.32377965 0.35959927
0.14115014 0.32377965 0.35959927
0.21485349 0.32377965 0.35959927
0.32068640 0.32377965 0.35959927
0.46894365 0.32377965 0.35959927
0.66992001 0.32377965 0.35959927
0.93391028 0.32377965 0.35959927
0.00986969 0.46496027 0.35959927
0.04895302 0.46496027 0.35959927
0.08928158 0.46496027 0.35959927
0.14115014 0.46496027 0.35959927
0.21485349 0.46496027 0.35959927
0.32068640 0.46496027 0.35959927
0.46894365 0.46496027 0.35959927
0.66992001 0.46496027 0.35959927
0.93391028 0.46496027 0.35959927
0.00986969 0.64412747 0.35959927
0.04895302 0.64412747 0.35959927
0.08928158 0.64412747 0.35959927
0.14115014 0.64412747 0.35959927
0.21485349 0.64412747 0.35959927
0.32068640 0.64412747 0.35959927
0.46894365 0.64412747 0.35959927
0.66992001 0.64412747 0.35959927
0.93391028 0.64412747 0.35959927
0.00986969 0.86633338 0.35959927
0.04895302 0.86633338 0.35959927
0.08928158 0.86633338 0.35959927
0.14115014 0.86633338 0.35959927
0.21485349 0.86633338 0.35959927
0.32068640 0.86633338 0.35959927
0.46894365 0.86633338 0.35959927
0.66992001 0.86633338 0.35959927
0.93391028 0.86633338 0.35959927
0.00986969 0.01085031 0.48994136
0.04895302 0.01085031 0.48994136
0.08928158 0.01085031 0.48994136
0.14115014 0.01085031 0.48994136
0.21485349 0.01085031 0.48994136
0.32068640 0.01085031 0.48994136
0.46894365 0.01085031 0.48994136
0.66992001 0.01085031 0.48994136
0.93391028 0.01085031 0.48994136
0.00986969 0.03788013 0.48994136
0.04895302 0.03788013 0.48994136
0.08928158 0.03788013 0.48994136
0.14115014 0.03788013 0.48994136
0.21485349 0.03788013 0.48994136
0.32068640 0.03788013 0.48994136
0.46894365 0.03788013 0.48994136
0.66992001 0.03788013 0.48994136
0.93391028 0.03788013 0.48994136
0.00986969 0.07763584 0.48994136
0.04895302 0.07763584 0.48994136
0.08928158 0.07763584 0.48994136
0.14115014 0.07763584 0.48994136
0.21485349 0.07763584 0.48994136
0.32068640 0.07763584 0.48994136
0.46894365 0.07763584 0.48994136
0.66992001 0.07763584 0.48994136
0.93391028 0.07763584 0.48994136
0.00986969 0.13516957 0.48994136
0.04895302 0.13516957 0.48994136
0.08928158 0.13516957 0.48994136
0.14115014 0.13516957 0.48994136
0.21485349 0.13516957 0.48994136
0.32068640 0.13516957 0.48994136
0.46894365 0.13516957 0.48994136
0.66992001 0.13516957 0.48994136
0.93391028 0.13516957 0.48994136
0.00986969 0.21553346 0.48994136
0.04895302 0.21553346 0.48994136
0.08928158 0.21553346 0.48994136
0.14115014 0.21553346 0.48994136
0.21485349 0.21553346 0.48994136
0.32068640 0.21553346 0.48994136
0.46894365 0.21553346 0.48994136
0.66992001 0.21553346 0.48994136
0.93391028 0.21553346 0.48994136
0.00986969 0.32377965 0.48994136
0.04895302 0.32377965 0.48994136
0.08928158 0.32377965 0.48994136
0.14115014 0.32377965 0.48994136
0.21485349 0.32377965 0.48994136
0.32068640 0.32377965 0.48994136
0.46894365 0.32377965 0.48994136
0.66992001 0.32377965 0.48994136
0.93391028 0.32377965 0.48994136
0.00986969 0.46496027 0.48994136
0.04895302 0.46496027 0.48994136
0.08928158 0.46496027 0.48994136
0.14115014 0.46496027 0.48994136
0.21485349 0.46496027 0.48994136
0.32068640 0.46496027 0.48994136
0.46894365 0.46496027 0.48994136
0.66992001 0.46496027 0.48994136
0.93391028 0.46496027 0.48994136
0.00986969 0.64412747 0.48994136
0.04895302 0.64412747 0.48994136
0.08928158 0.64412747 0.48994136
0.14115014 0.64412747 0.48994136
0.21485349 0.64412747 0.48994136
0.32068640 0.64412747 0.48994136
0.46894365 0.64412747 0.48994136
0.66992001 0.64412747 0.48994136
0.93391028 0.64412747 0.48994136
0.00986969 0.86633338 0.48994136
0.04895302 0.86633338 0.48994136
0.08928158 0.86633338 0.48994136
0.14115014 0.86633338 0.48994136
0.21485349 0.86633338 0.48994136
0.32068640 0.86633338 0.48994136
0.46894365 0.86633338 0.48994136
0.66992001 0.86633338 0.48994136
0.93391028 0.86633338 0.48994136
0.00986969 0.01085031 0.64240187
0.04895302 0.01085031 0.64240187
0.08928158 0.01085031 0.64240187
0.14115014 0.01085031 0.64240187
0.21485349 0.01085031 0.64240187
0.32068640 0.01085031 0.64240187
0.46894365 0.01085031 0.64240187
0.66992001 0.01085031 0.64240187
0.93391028 0.01085031 0.64240187
0.00986969 0.03788013 0.64240187
0.04895302 0.03788013 0.64240187
0.08928158 0.03788013 0.64240187
0.14115014 0.03788013 0.64240187
0.21485349 0.03788013 0.64240187
0.32068640 0.03788013 0.64240187
0.46894365 0.03788013 0.64240187
0.66992001 0.03788013 0.64240187
0.93391028 0.03788013 0.64240187
0.00986969 0.07763584 0.64240187
0.04895302 0.07763584 0.64240187
0.08928158 0.07763584 0.64240187
0.14115014 0.07763584 0.64240187
0.21485349 0.07763584 0.64240187
0.32068640 0.07763584 0.64240187
0.46894365 0.07763584 0.64240187
0.66992001 0.07763584 0.64240187
0.93391028 0.07763584 0.64240187
0.00986969 0.13516957 0.64240187
0.04895302 0.13516957 0.64240187
0.08928158 0.13516957 0.64240187
0.14115014 0.13516957 0.64240187
0.21485349 0.13516957 0.64240187
0.32068640 0.13516957 0.64240187
0.46894365 0.13516957 0.64240187
0.66992001 0.13516957 0.64240187
0.93391028 0.13516957 0.64240187
0.00986969 0.21553346 0.64240187
0.04895302 0.21553346 0.64240187
0.08928158 0.21553346 0.64240187
0.14115014 0.21553346 0.64240187
0.21485349 0.21553346 0.64240187
0.32068640 0.21553346 0.64240187
0.46894365 0.21553346 0.64240187
0.66992001 0.21553346 0.64240187
0.93391028 0.21553346 0.64240187
0.00986969 0.32377965 0.64240187
0.04895302 0.32377965 0.64240187
0.08928158 0.32377965 0.64240187
0.14115014 0.32377965 0.64240187
0.21485349 0.32377965 0.64240187
0.32068640 0.32377965 0.64240187
0.46894365 0.32377965 0.64240187
0.66992001 0.32377965 0.64240187
0.93391028 0.32377965 0.64240187
0.00986969 0.46496027 0.64240187
0.04895302 0.46496027 0.64240187
0.08928158 0.46496027 0.64240187
0.14115014 0.46496027 0.64240187
0.21485349 0.46496027 0.64240187
0.32068640 0.46496027 0.64240187
0.46894365 0.46496027 0.64240187
0.66992001 0.46496027 0.64240187
0.93391028 0.46496027 0.64240187
0.00986969 0.64412747 0.64240187
0.04895302 0.64412747 0.64240187
0.08928158 0.64412747 0.64240187
0.14115014 0.64412747 0.64240187
0.21485349 0.64412747 0.64240187
0.32068640 0.64412747 0.64240187
0.46894365 0.64412747 0.64240187
0.66992001 0.64412747 0.64240187
0.93391028 0.64412747 0.64240187
0.00986969 0.86633338 0.64240187
0.04895302 0.86633338 0.64240187
0.08928158 0.86633338 0.64240187
0.14115014 0.86633338 0.64240187
0.21485349 0.86633338 0.64240187
0.32068640 0.86633338 0.64240187
0.46894365 0.86633338 0.64240187
0.66992001 0.86633338 0.64240187
0.93391028 0.86633338 0.64240187
0.00986969 0.01085031 0.81717892
0.04895302 0.01085031 0.81717892
0.08928158 0.01085031 0.81717892
0.14115014 0.01085031 0.81717892
0.21485349 0.01085031 0.81717892
0.32068640 0.01085031 0.81717892
0.46894365 0.01085031 0.81717892
0.66992001 0.01085031 0.81717892
0.93391028 0.01085031 0.81717892
0.00986969 0.03788013 0.81717892
0.04895302 0.03788013 0.81717892
0.08928158 0.03788013 0.81717892
0.14115014 0.03788013 0.81717892
0.21485349 0.03788013 0.81717892
0.32068640 0.03788013 0.81717892
0.46894365 0.03788013 0.81717892
0.66992001 0.03788013 0.81717892
0.93391028 0.03788013 0.81717892
0.00986969 0.07763584 0.81717892
0.04895302 0.07763584 0.81717892
0.08928158 0.07763584 0.81717892
0.14115014 0.07763584 0.81717892
0.21485349 0.07763584 0.81717892
0.32068640 0.07763584 0.81717892
0.46894365 0.07763584 0.81717892
0.66992001 0.07763584 0.81717892
0.93391028 0.07763584 0.81717892
0.00986969 0.13516957 0.81717892
0.04895302 0.13516957 0.81717892
0.08928158 0.13516957 0.81717892
0.14115014 0.13516957 0.81717892
0.21485349 0.13516957 0.81717892
0.32068640 0.13516957 0.81717892
0.46894365 0.13516957 0.81717892
0.66992001 0.13516957 0.81717892
0.93391028 0.13516957 0.81717892
0.00986969 0.21553346 0.81717892
0.04895302 0.21553346 0.81717892
0.08928158 0.21553346 0.81717892
0.14115014 0.21553346 0.81717892
0.21485349 0.21553346 0.81717892
0.32068640 0.21553346 0.81717892
0.46894365 0.21553346 0.81717892
0.66992001 0.21553346 0.81717892
0.93391028 0.21553346 0.81717892
0.00986969 0.32377965 0.81717892
0.04895302 0.32377965 0.81717892
0.08928158 0.32377965 0.81717892
0.14115014 0.32377965 0.81717892
0.21485349 0.32377965 0.81717892
0.32068640 0.32377965 0.81717892
0.46894365 0.32377965 0.81717892
0.66992001 0.32377965 0.81717892
0.93391028 0.32377965 0.81717892
0.00986969 0.46496027 0.81717892
0.04895302 0.46496027 0.81717892
0.08928158 0.46496027 0.81717892
0.14115014 0.46496027 0.81717892
0.21485349 0.46496027 0.81717892
0.32068640 0.46496027 0.81717892
0.46894365 0.46496027 0.81717892
0.66992001 0.46496027 0.81717892
0.93391028 0.46496027 0.81717892
0.00986969 0.64412747 0.81717892
0.04895302 0.64412747 0.81717892
0.08928158 0.64412747 0.81717892
0.14115014 0.64412747 0.81717892
0.21485349 0.64412747 0.81717892
0.32068640 0.64412747 0.81717892
0.46894365 0.64412747 0.81717892
0.66992001 0.64412747 0.81717892
0.93391028 0.64412747 0.81717892
0.00986969 0.86633338 0.81717892
0.04895302 0.86633338 0.81717892
0.08928158 0.86633338 0.81717892
0.14115014 0.86633338 0.81717892
0.21485349 0.86633338 0.81717892
0.32068640 0.86633338 0.81717892
0.46894365 0.86633338 0.81717892
0.66992001 0.86633338 0.81717892
0.93391028 0.86633338 0.81717892
