fixtures/media/authorized-real-v2/target-guided-grade-v1.cube
TITLE "NodeVideo authorized target-guided grade v1"
LUT_3D_SIZE 5
DOMAIN_MIN 0.0 0.0 0.0
DOMAIN_MAX 1.0 1.0 1.0
0.00986969 0.01085031 0.03273086
0.08928158 0.01085031 0.03273086
0.21485349 0.01085031 0.03273086
0.46894365 0.01085031 0.03273086
0.93391028 0.01085031 0.03273086
0.00986969 0.07763584 0.03273086
0.08928158 0.07763584 0.03273086
0.21485349 0.07763584 0.03273086
0.46894365 0.07763584 0.03273086
0.93391028 0.07763584 0.03273086
0.00986969 0.21553346 0.03273086
0.08928158 0.21553346 0.03273086
0.21485349 0.21553346 0.03273086
0.46894365 0.21553346 0.03273086
0.93391028 0.21553346 0.03273086
0.00986969 0.46496027 0.03273086
0.08928158 0.46496027 0.03273086
0.21485349 0.46496027 0.03273086
0.46894365 0.46496027 0.03273086
0.93391028 0.46496027 0.03273086
0.00986969 0.86633338 0.03273086
0.08928158 0.86633338 0.03273086
0.21485349 0.86633338 0.03273086
0.46894365 0.86633338 0.03273086
0.93391028 0.86633338 0.03273086
0.00986969 0.01085031 0.09930231
0.08928158 0.01085031 0.09930231
0.21485349 0.01085031 0.09930231
0.46894365 0.01085031 0.09930231
0.93391028 0.01085031 0.09930231
0.00986969 0.07763584 0.09930231
0.08928158 0.07763584 0.09930231
0.21485349 0.07763584 0.09930231
0.46894365 0.07763584 0.09930231
0.93391028 0.07763584 0.09930231
0.00986969 0.21553346 0.09930231
0.08928158 0.21553346 0.09930231
0.21485349 0.21553346 0.09930231
0.46894365 0.21553346 0.09930231
0.93391028 0.21553346 0.09930231
0.00986969 0.46496027 0.09930231
0.08928158 0.46496027 0.09930231
0.21485349 0.46496027 0.09930231
0.46894365 0.46496027 0.09930231
0.93391028 0.46496027 0.09930231
0.00986969 0.86633338 0.09930231
0.08928158 0.86633338 0.09930231
0.21485349 0.86633338 0.09930231
0.46894365 0.86633338 0.09930231
0.93391028 0.86633338 0.09930231
0.00986969 0.01085031 0.25117749
0.08928158 0.01085031 0.25117749
0.21485349 0.01085031 0.25117749
0.46894365 0.01085031 0.25117749
0.93391028 0.01085031 0.25117749
0.00986969 0.07763584 0.25117749
0.08928158 0.07763584 0.25117749
0.21485349 0.07763584 0.25117749
0.46894365 0.07763584 0.25117749
0.93391028 0.07763584 0.25117749
0.00986969 0.21553346 0.25117749
0.08928158 0.21553346 0.25117749
0.21485349 0.21553346 0.25117749
0.46894365 0.21553346 0.25117749
0.93391028 0.21553346 0.25117749
0.00986969 0.46496027 0.25117749
0.08928158 0.46496027 0.25117749
0.21485349 0.46496027 0.25117749
0.46894365 0.46496027 0.25117749
0.93391028 0.46496027 0.25117749
0.00986969 0.86633338 0.25117749
0.08928158 0.86633338 0.25117749
0.21485349 0.86633338 0.25117749
0.46894365 0.86633338 0.25117749
0.93391028 0.86633338 0.25117749
0.00986969 0.01085031 0.48994136
0.08928158 0.01085031 0.48994136
0.21485349 0.01085031 0.48994136
0.46894365 0.01085031 0.48994136
0.93391028 0.01085031 0.48994136
0.00986969 0.07763584 0.48994136
0.08928158 0.07763584 0.48994136
0.21485349 0.07763584 0.48994136
0.46894365 0.07763584 0.48994136
0.93391028 0.07763584 0.48994136
0.00986969 0.21553346 0.48994136
0.08928158 0.21553346 0.48994136
0.21485349 0.21553346 0.48994136
0.46894365 0.21553346 0.48994136
0.93391028 0.21553346 0.48994136
0.00986969 0.46496027 0.48994136
0.08928158 0.46496027 0.48994136
0.21485349 0.46496027 0.48994136
0.46894365 0.46496027 0.48994136
0.93391028 0.46496027 0.48994136
0.00986969 0.86633338 0.48994136
0.08928158 0.86633338 0.48994136
0.21485349 0.86633338 0.48994136
0.46894365 0.86633338 0.48994136
0.93391028 0.86633338 0.48994136
0.00986969 0.01085031 0.81717892
0.08928158 0.01085031 0.81717892
0.21485349 0.01085031 0.81717892
0.46894365 0.01085031 0.81717892
0.93391028 0.01085031 0.81717892
0.00986969 0.07763584 0.81717892
0.08928158 0.07763584 0.81717892
0.21485349 0.07763584 0.81717892
0.46894365 0.07763584 0.81717892
0.93391028 0.07763584 0.81717892
0.00986969 0.21553346 0.81717892
0.08928158 0.21553346 0.81717892
0.21485349 0.21553346 0.81717892
0.46894365 0.21553346 0.81717892
0.93391028 0.21553346 0.81717892
0.00986969 0.46496027 0.81717892
0.08928158 0.46496027 0.81717892
0.21485349 0.46496027 0.81717892
0.46894365 0.46496027 0.81717892
0.93391028 0.46496027 0.81717892
0.00986969 0.86633338 0.81717892
0.08928158 0.86633338 0.81717892
0.21485349 0.86633338 0.81717892
0.46894365 0.86633338 0.81717892
0.93391028 0.86633338 0.81717892
